X: 42
T: Munster Buttermilk
C: J-14
M: 6/8
Z: Transcribed to abc by Mary Lou Knack
R: jig
K: G
d| "G"gfg "C"age| "G"d2B BAB| d2B BAB| dBG GBd|
   "G"gfg "C"age| "G"d2B BAB| dBG GAB| "D"A3 "G"G2 :|
|:\
"G"d2e "C"g2a| "G"b2b bag| "D"a2a agf| "G"gfg "C"age|
"G"d2e "C"g2a| "G"b2b bag| "C"age "G"deg| "D"a3 "G"g3 :|
%%text 9/1/98
% ---------- page 21 ----------
